X: 6890
T: Chasing The Goats
R: reel
M: 4/4
K: Dmajor
|:A|~d2 Ad BAdB|Addg fAeA|~d2 Ad BAdA|(3fgaeg fdd:|
f|~a2 fa ~d2fd|gfed edcA|~a2 fa cddf|gfed ceeA|
~a2 fa ~d2fd|gfed edcA|BGdB cAed|ceag fAeA||

